Sources/FrostedUI/Resources/Icons.xcassets/emailOut32.imageset/email-out-32.svg

<svg
  width="32"
  height="32"
  viewBox="0 0 32 32"
  fill="none"
  xmlns="http://www.w3.org/2000/svg"
  data-fui-icon="true"
>
  <path
    d="M27.25 14.25V9.47C27.25 7.4155 25.5845 5.75 23.53 5.75H4.47C2.4155 5.75 0.75 7.4155 0.75 9.47V22.53C0.75 24.5845 2.4155 26.25 4.47 26.25H23.25"
    stroke="currentColor"
    stroke-width="1.5"
    stroke-linecap="round"
    stroke-linejoin="round"
  />
  <path
    d="M.75 10.3991L11.0974 17.3641C11.9552 17.9415 12.9659 18.25 14 18.25V18.25C15.0341 18.25 16.0448 17.9415 16.9026 17.3641L27.25 10.3991M19.75 21.75H31.25M31.25 21.75L26.75 17.5M31.25 21.75L26.75 26"
    stroke="currentColor"
    stroke-width="1.5"
    stroke-linecap="round"
    stroke-linejoin="round"
  />
</svg>

<svg xmlns="http://www.w3.org/2000/svg" width="32" height="32" fill="none" data-fui-icon="true" viewBox="0 0 32 32"><path stroke="currentColor" stroke-linecap="round" stroke-linejoin="round" stroke-width="1.5" d="M27.25 14.25V9.47a3.72 3.72 0 0 0-3.72-3.72H4.47A3.72 3.72 0 0 0 .75 9.47v13.06a3.72 3.72 0 0 0 3.72 3.72h18.78"/><path stroke="currentColor" stroke-linecap="round" stroke-linejoin="round" stroke-width="1.5" d="m.75 10.4 10.347 6.964A5.2 5.2 0 0 0 14 18.25v0a5.2 5.2 0 0 0 2.903-.886L27.25 10.4m-7.5 11.351h11.5m0 0-4.5-4.25m4.5 4.25L26.75 26"/></svg>
